packages/katcn/src/icons/svg/stop.svg

<svg width="24" height="25" viewBox="0 0 24 25" fill="none" xmlns="http://www.w3.org/2000/svg">
<path fill-rule="evenodd" clip-rule="evenodd" d="M5.5 4.20801C4.65228 4.20801 4 4.86029 4 5.70801V18.708C4 19.5557 4.65228 20.208 5.5 20.208H18.5C19.3745 20.208 20 19.5294 20 18.808V5.70801C20 4.83355 19.3213 4.20801 18.6 4.20801H5.5ZM2 5.70801C2 3.75572 3.54772 2.20801 5.5 2.20801H18.6C20.4787 2.20801 22 3.78247 22 5.70801V18.808C22 20.6867 20.4255 22.208 18.5 22.208H5.5C3.54772 22.208 2 20.6603 2 18.708V5.70801Z" fill="black"/>
</svg>

<svg xmlns="http://www.w3.org/2000/svg" fill="none" viewBox="0 0 24 25"><path fill="#000" fill-rule="evenodd" d="M5.5 4.208c-.848 0-1.5.652-1.5 1.5v13c0 .848.652 1.5 1.5 1.5h13c.875 0 1.5-.679 1.5-1.4v-13.1c0-.874-.679-1.5-1.4-1.5zM2 5.708c0-1.952 1.548-3.5 3.5-3.5h13.1c1.879 0 3.4 1.574 3.4 3.5v13.1c0 1.879-1.575 3.4-3.5 3.4h-13a3.476 3.476 0 0 1-3.5-3.5z" clip-rule="evenodd"/></svg>
